public/airdropicon.svg

<svg width="91" height="92" viewBox="0 0 91 92" fill="none" xmlns="http://www.w3.org/2000/svg">
<g filter="url(#filter0_d_385_485)">
<path d="M86.9159 29.2368C85.444 17.0089 74.2352 7.82192 61.3119 3.56806C67.1993 9.94076 71.4046 19.8395 71.4046 31.9864H75.9496L57.0903 52.9322C56.686 52.8351 56.314 52.6896 55.8773 52.6896H48.1136V31.9864H66.2289C66.2289 13.3535 55.0847 0.931641 45.5257 0.931641C35.9666 0.931641 24.8225 13.3535 24.8225 31.9864H42.9378V52.6896H35.1741C34.7374 52.6896 34.3654 52.8351 33.961 52.9322L15.1017 31.9864H19.6467C19.6467 19.8395 23.852 9.94076 29.7395 3.56806C16.8162 7.83809 5.60737 17.0251 4.1355 29.2368C3.95758 30.7086 5.23536 31.9864 6.7234 31.9864H8.13057L30.2409 56.5552C30.1277 56.9758 29.9821 57.3963 29.9821 57.8654V78.5685C29.9821 81.4314 32.2951 83.7443 35.1579 83.7443H55.8611C58.724 83.7443 61.0369 81.4314 61.0369 78.5685V57.8654C61.0369 57.3963 60.8913 56.992 60.7781 56.5552L82.9046 31.9864H84.3118C85.816 31.9864 87.0938 30.7248 86.9159 29.2368Z" fill="url(#paint0_linear_385_485)"/>
</g>
<defs>
<filter id="filter0_d_385_485" x="0.118896" y="0.931641" width="90.8135" height="90.8125" filterUnits="userSpaceOnUse" color-interpolation-filters="sRGB">
<feFlood flood-opacity="0" result="BackgroundImageFix"/>
<feColorMatrix in="SourceAlpha" type="matrix" values="0 0 0 0 0 0 0 0 0 0 0 0 0 0 0 0 0 0 127 0" result="hardAlpha"/>
<feOffset dy="4"/>
<feGaussianBlur stdDeviation="2"/>
<feComposite in2="hardAlpha" operator="out"/>
<feColorMatrix type="matrix" values="0 0 0 0 0.184314 0 0 0 0 0.129412 0 0 0 0 0.458824 0 0 0 0.35 0"/>
<feBlend mode="normal" in2="BackgroundImageFix" result="effect1_dropShadow_385_485"/>
<feBlend mode="normal" in="SourceGraphic" in2="effect1_dropShadow_385_485" result="shape"/>
</filter>
<linearGradient id="paint0_linear_385_485" x1="-82.1452" y1="-52.5516" x2="128.338" y2="97.5485" gradientUnits="userSpaceOnUse">
<stop stop-color="#DED8FF"/>
<stop offset="1" stop-color="#7B48ED"/>
</linearGradient>
</defs>
</svg>

<svg xmlns="http://www.w3.org/2000/svg" width="91" height="92" fill="none" xmlns:v="https://vecta.io/nano"><g filter="url(#A)"><path d="M86.916 29.237C85.444 17.009 74.235 7.822 61.312 3.568c5.887 6.373 10.093 16.271 10.093 28.418h4.545L57.09 52.932c-.404-.097-.776-.243-1.213-.243h-7.764V31.986h18.115C66.229 13.354 55.085.932 45.526.932S24.823 13.354 24.823 31.986h18.115V52.69h-7.764c-.437 0-.809.145-1.213.243L15.102 31.986h4.545c0-12.147 4.205-22.046 10.093-28.418C16.816 7.838 5.607 17.025 4.136 29.237c-.178 1.472 1.1 2.75 2.588 2.75h1.407l22.11 24.569c-.113.421-.259.841-.259 1.31v20.703a5.17 5.17 0 0 0 5.176 5.176h20.703a5.17 5.17 0 0 0 5.176-5.176V57.865c0-.469-.146-.873-.259-1.31l22.127-24.569h1.407c1.504 0 2.782-1.262 2.604-2.75z" fill="url(#B)"/></g><defs><filter id="A" x=".119" y=".932" width="90.814" height="90.813" filterUnits="userSpaceOnUse" color-interpolation-filters="sRGB"><feFlood flood-opacity="0" result="A"/><feColorMatrix in="SourceAlpha" values="0 0 0 0 0 0 0 0 0 0 0 0 0 0 0 0 0 0 127 0" result="B"/><feOffset dy="4"/><feGaussianBlur stdDeviation="2"/><feComposite in2="B" operator="out"/><feColorMatrix values="0 0 0 0 0.184314 0 0 0 0 0.129412 0 0 0 0 0.458824 0 0 0 0.35 0"/><feBlend in2="A"/><feBlend in="SourceGraphic"/></filter><linearGradient id="B" x1="-82.145" y1="-52.552" x2="128.338" y2="97.549" gradientUnits="userSpaceOnUse"><stop stop-color="#ded8ff"/><stop offset="1" stop-color="#7b48ed"/></linearGradient></defs></svg>
